X:1
T:Red the Rose and White Lily
M:4/4
L:1/8
K:C
 D2|D-E A2E-cA-G| D3 C C3 D|D-E A2 c3/2- d/2 e2|
M:2/4
 c3 d| edc-A|G/2-A/2 cA-G| D3 C| C4|
M:2/4
 c3- d|
M:4/4
e-dc-AG-A G2| D6||
